X: 53
M:4/4
L:1/8
K:D
2FDAF dABG|FAdg fdd||g|"tr"fede fgaf|gfed cAeg|
"tr"fede fgaf|ecdB Addg|fdfg fgaf|
"tr"gfed cAeg|fdgb afge|fdec d2 d||

